!!!OTL: IN DEM FRUEHLING IN DEM SOMMER
!!!ARE: Europa, Mitteleuropa, Deutschland, Uckermark, Angermuende
!!!SCT: E0731B
!!!YEM: Copyright 1995, estate of Helmut Schaffrath.
**kern
*ICvox
*Ivox
*M3/4
*k[b-]
*F:
{8f
8a
=1
4cc
8a
8f
8b-
8dd
=2
8dd
8cc
4cc}
{8f
8a
=3
4cc
8a
8f
8b-
8dd
=4
8dd
8cc
4cc}
{8f
8a
=5
4cc
4ff
8dd
16ff
16dd
=6
4.cc}
{8dd
8cc
8b-
=7
4a
4cc
8b-
16cc
16b-
=8
4a
4r}
==
!!!AGN: Liebes - Lied, Leid, Klage, Tod
!!!ONB: ESAC (Essen Associative Code) Database: ERK2
!!!AMT: simple triple
!!!AIN: vox
!!!EED: Helmut Schaffrath
!!!EEV: 1.0
*-
